X: 11171
T: More W Inghean Ghibertan
T: More w Inghean ghiberlan
N: The tune page and index spell the title slightly differently.
%R: march, reel
B: James Oswald "The Caledonian Pocket Companion" v.1 b.1 p.17 #1 (top 4 staffs continued from p.16)
N: Rest added to 2nd strain's first (pickup) note, to fix the rhythms of repeats.
Z: 2020 John Chambers <jc:trillian.mit.edu>
M: C
L: 1/8
K: Am
AG |\
E2A2 A2(GA) | TB4 A2(dc) | TB3A GABA | TB2A2 A3B |\
(GA)(Bc) | d2G2 | TB4 A2G2 | DEG2 (GA)(BA) |
G2E2 D4 | DEG2 G2(DE) | G4 g4 | e3d (eg)(ag) |\
Te2d2 B4 | d2(ef) g2d2 | e2d2 g2B2 | c2(BA) e2(dc) | TB2A2 A2 :|
|: zB |\
c3d (cd)(ed) | (cd)(ef) g4 | TB2A2 e2(dc) | TB2A2 A3B |\
(GA)(Bc) (dB)(dg) | {B}A4 (G2E2) | D4 DEG2 | GAGE D4 |
(DE)(GA) G2D2 | G4 g4 | e4 a2g2 | eged c4 |\
d2(ef) g2d2 | e2B2 g2B2 | c2(BA) e2(dc) | TB2A2 A2 :|
